X:10
T:Banks of Lough Gowna, The
T:Shores of Lough Gowna, The
R:jig
H:Played in A minor on the record. Usually played in B minor.
H:See also #216
D:Patrick Street 1.
Z:id:hn-jig-10
M:6/8
K:Bm
~BcB BAF|FEF DFA|~BcB BAF|d2e fdc|~BcB BAF|FEF DFA|def geg|1 fdB Bdc:|2 fdB ~B2A||
|:def ~a2b|afb afe|dFA def|geg fdB|def ~a2b|afb afe|def geg|1 fdB ~B2A:|2 fdB Bdc||
